svgs/solid/gun.svg

<svg xmlns="http://www.w3.org/2000/svg" viewBox="0 0 576 512"><!-- Font Awesome Pro 6.0.0-alpha2 by @fontawesome - https://fontawesome.com License - https://fontawesome.com/license (Commercial License) --><path d="M544 64H528V56C528 42.742 517.254 32 504 32S480 42.742 480 56V64H43.172C19.328 64 0 83.328 0 107.172V196.828C0 220.672 19.328 240 43.172 240C64.432 240 79.781 260.348 73.941 280.789L33.25 439.211C27.41 459.648 42.76 480 64.02 480H167.863C182.15 480 194.705 470.531 198.629 456.793L226.361 352H320.938C345.094 352 366.438 336.594 374.062 313.719L398.643 240H434.746C443.232 240 451.371 236.629 457.373 230.625L480 208H544C561.674 208 576 193.672 576 176V96C576 78.328 561.674 64 544 64ZM328.5 298.562C327.438 301.812 324.375 304 320.938 304H239.062L256 240H348.021L328.5 298.562ZM480 160H64V128H480V160Z"/></svg>

<svg xmlns="http://www.w3.org/2000/svg" viewBox="0 0 576 512"><!--! Font Awesome Pro 6.0.0-alpha3 by @fontawesome - https://fontawesome.com License - https://fontawesome.com/license (Commercial License) --><path d="M544 64h-16V56C528 42.74 517.3 32 504 32S480 42.74 480 56V64H43.17C19.33 64 0 83.33 0 107.2v89.66C0 220.7 19.33 240 43.17 240c21.26 0 36.61 20.35 30.77 40.79l-40.69 158.4C27.41 459.6 42.76 480 64.02 480h103.8c14.29 0 26.84-9.469 30.77-23.21L226.4 352h94.58c24.16 0 45.5-15.41 53.13-38.28L398.6 240h36.1c8.486 0 16.62-3.369 22.63-9.373L480 208h64c17.67 0 32-14.33 32-32V96C576 78.33 561.7 64 544 64zM328.5 298.6C327.4 301.8 324.4 304 320.9 304H239.1L256 240h92.02L328.5 298.6zM480 160H64V128h416V160z"/></svg>
